Numix-GalliumOS/48/categories/preferences-mail-accounts.svg

<?xml version="1.0" encoding="UTF-8" standalone="no"?>
<svg
   xmlns:dc="http://purl.org/dc/elements/1.1/"
   xmlns:cc="http://creativecommons.org/ns#"
   xmlns:rdf="http://www.w3.org/1999/02/22-rdf-syntax-ns#"
   xmlns:svg="http://www.w3.org/2000/svg"
   xmlns="http://www.w3.org/2000/svg"
   xmlns:sodipodi="http://sodipodi.sourceforge.net/DTD/sodipodi-0.dtd"
   xmlns:inkscape="http://www.inkscape.org/namespaces/inkscape"
   width="48"
   height="48"
   viewBox="0 0 38.4 38.4"
   id="svg2"
   version="1.1"
   inkscape:version="0.91 r"
   sodipodi:docname="preferences-mail-accounts.svg">
  <metadata
     id="metadata10">
    <rdf:RDF>
      <cc:Work
         rdf:about="">
        <dc:format>image/svg+xml</dc:format>
        <dc:type
           rdf:resource="http://purl.org/dc/dcmitype/StillImage" />
        <dc:title />
      </cc:Work>
    </rdf:RDF>
  </metadata>
  <defs
     id="defs8" />
  <sodipodi:namedview
     pagecolor="#ffffff"
     bordercolor="#666666"
     borderopacity="1"
     objecttolerance="10"
     gridtolerance="10"
     guidetolerance="10"
     inkscape:pageopacity="0"
     inkscape:pageshadow="2"
     inkscape:window-width="1920"
     inkscape:window-height="1056"
     id="namedview6"
     showgrid="true"
     inkscape:zoom="8.9603965"
     inkscape:cx="53.428106"
     inkscape:cy="26.793653"
     inkscape:window-x="0"
     inkscape:window-y="24"
     inkscape:window-maximized="1"
     inkscape:current-layer="svg2">
    <inkscape:grid
       type="xygrid"
       id="grid4153" />
  </sodipodi:namedview>
  <path
     style="fill:#555555"
     d="m 23.828452,15.2 2.743096,0 c 4.114647,0 4.026349,4.200555 4.026349,4.200555 l 0,3.59963 c 0,1.370583 -2.398738,4.200555 -2.398738,4.200555 l 0,1.799815 5.400841,2.998705 0,2.40074 -16.8,0 0,-2.40074 5.40084,-2.998705 0,-1.799815 c 0,0 -2.407567,-2.829972 -2.398737,-4.200555 l 0,-3.59963 c 0,0 -0.0883,-4.200555 4.026349,-4.200555 z"
     id="path4"
     inkscape:connector-curvature="0" />
  <path
     style="fill:#555555"
     d="M 14.785156 6 C 9.6418446 6 9.7519531 11.25 9.7519531 11.25 L 9.7519531 15.75 C 9.7409155 17.463229 12.751953 21 12.751953 21 L 12.751953 23.25 L 6 27 L 6 30 L 23.464844 30 C 23.336001 29.616417 23.248932 29.207977 23.251953 28.740234 L 23.251953 24.917969 L 20.248047 23.25 L 20.248047 21 C 20.248047 21 23.248047 17.463229 23.248047 15.75 L 23.248047 11.25 C 23.248047 11.25 23.358152 6 18.214844 6 L 14.785156 6 z M 26.251953 26.583984 L 26.251953 28.75 A 1.50015 1.50015 0 0 1 26.251953 28.759766 C 26.252044 28.745626 26.331336 29.161101 26.5625 29.632812 C 26.618654 29.747399 26.697864 29.877406 26.765625 30 L 27 30 L 27 27 L 26.251953 26.583984 z "
     transform="scale(0.8,0.8)"
     id="path4-7" />
</svg>

<svg xmlns="http://www.w3.org/2000/svg" width="48" height="48" viewBox="0 0 38.4 38.4">
 <path d="m 23.828 15.2 2.743 0 c 4.115 0 4.03 4.201 4.03 4.201 l 0 3.6 c 0 1.371 -2.399 4.201 -2.399 4.201 l 0 1.8 5.401 2.999 0 2.401 -16.8 0 0 -2.401 5.401 -2.999 0 -1.8 c 0 0 -2.408 -2.83 -2.399 -4.201 l 0 -3.6 c 0 0 -0.088 -4.201 4.03 -4.201 z" style="fill:#555"/>
 <path d="m 14.785 6 c -5.143 0 -5.03 5.25 -5.03 5.25 l 0 4.5 c -0.011 1.713 3 5.25 3 5.25 l 0 2.25 l -6.752 3.75 l 0 3 l 17.465 0 c -0.129 -0.384 -0.216 -0.792 -0.213 -1.26 l 0 -3.822 l -3 -1.668 l 0 -2.25 c 0 0 3 -3.537 3 -5.25 l 0 -4.5 c 0 0 0.11 -5.25 -5.03 -5.25 l -3.43 0 z m 11.467 20.584 l 0 2.166 a 1.5 1.5 0 0 1 0 0.01 c 0 -0.014 0.079 0.401 0.311 0.873 c 0.056 0.115 0.135 0.245 0.203 0.367 l 0.234 0 l 0 -3 l -0.748 -0.416 z" transform="scale(0.8,0.8)" style="fill:#555"/>
</svg>
